X: 41801
T: Vicar Of Llanarth
R: jig
M: 6/8
K: Gmajor
A|B2d ~d2B|A2B dBA|AGB AGE|GED AGA|B2d ~d2B|
A2B dBA|1 AGB AGE|G3 G2:|2 G>ED Ddc|B2G GBc||
|:d2g ~g2d|c>dc cGF|{E}d2g g2e|d>ed d2d|ega ega|
[1ea>g edB|BAd BAF|G3 GBc:|2 eb>a ged|BAd BAF|G3 G2||

